;FLAVOR:Marlin
;TIME:7181
;Filament used: 14.0874m, 0m
;Layer height: 0.3
;MINX:100.4
;MINY:100.4
;MINZ:0.3
;MAXX:199.6
;MAXY:199.6
;MAXZ:51.9
;Generated with Cura_SteamEngine 4.12.1
T0
M140 S90
M105
M190 S90
M104 S240
M105
M109 S240
M82 ;absolute extrusion mode
G28 ;Home
G1 Z15.0 F6000 ;Move the platform down 15mm
;Prime the extruder
G92 E0
G1 F200 E3
G92 E0
G92 E0
G92 E0
G1 F1500 E-6.5
;LAYER_COUNT:173
;LAYER:0
M107
G0 F3600 X114.952 Y114.904 Z0.3
;TYPE:SKIRT
G1 F1500 E0
G1 F1800 X115.478 Y114.429 E0.07072
G1 X121.841 Y109.205 E0.89218
G1 X122.469 Y108.742 E0.97003
G1 X123.081 Y108.377 E1.04114
G1 X130.345 Y104.494 E1.863
G1 X131.051 Y104.162 E1.94084
G1 X131.722 Y103.923 E2.01192
G1 X139.599 Y101.534 E2.83324
G1 X140.356 Y101.346 E2.91107
G1 X141.06 Y101.244 E2.98205
G1 X149.255 Y100.437 E3.8037
G1 X150.034 Y100.4 E3.88152
G1 X150.745 Y100.437 E3.95256
G1 X158.94 Y101.244 E4.77421
G1 X159.711 Y101.36 E4.85201
G1 X160.401 Y101.534 E4.92302
G1 X168.278 Y103.923 E5.74434
G1 X169.011 Y104.187 E5.82208
G1 X169.655 Y104.494 E5.89326
G1 X176.919 Y108.377 E6.71513
G1 X177.587 Y108.779 E6.79292
G1 X178.158 Y109.205 E6.864
G1 X184.519 Y114.427 E7.68519
G1 X185.096 Y114.952 E7.76302
G1 X185.571 Y115.478 E7.83374
G1 X190.795 Y121.841 E8.65521
G1 X191.258 Y122.469 E8.73306
G1 X191.623 Y123.081 E8.80416
G1 X195.506 Y130.345 E9.62602
G1 X195.838 Y131.051 E9.70387
G1 X196.077 Y131.722 E9.77494
G1 X198.466 Y139.598 E10.59617
G1 X198.653 Y140.355 E10.67397
G1 X198.756 Y141.059 E10.74497
G1 X199.563 Y149.253 E11.56652
G1 X199.6 Y150.032 E11.64434
G1 X199.563 Y150.743 E11.71538
G1 X198.756 Y158.94 E12.53723
G1 X198.64 Y159.71 E12.61493
G1 X198.466 Y160.401 E12.68603
G1 X196.077 Y168.278 E13.50736
G1 X195.813 Y169.011 E13.58509
G1 X195.507 Y169.655 E13.65624
G1 X191.625 Y176.918 E14.47796
G1 X191.222 Y177.585 E14.55572
G1 X190.796 Y178.157 E14.62689
G1 X185.573 Y184.519 E15.44821
G1 X185.048 Y185.096 E15.52605
G1 X184.522 Y185.571 E15.59677
G1 X178.159 Y190.795 E16.41823
G1 X177.531 Y191.258 E16.49608
G1 X176.919 Y191.623 E16.56719
G1 X169.655 Y195.506 E17.38905
G1 X168.949 Y195.838 E17.46689
G1 X168.278 Y196.077 E17.53797
G1 X160.401 Y198.466 E18.35929
G1 X159.644 Y198.654 E18.43712
G1 X158.94 Y198.756 E18.5081
G1 X150.745 Y199.563 E19.32975
G1 X149.966 Y199.6 E19.40757
G1 X149.255 Y199.563 E19.47861
G1 X141.06 Y198.756 E20.30026
G1 X140.289 Y198.64 E20.37806
G1 X139.599 Y198.466 E20.44907
G1 X131.722 Y196.077 E21.27039
G1 X130.989 Y195.813 E21.34813
G1 X130.345 Y195.506 E21.41931
G1 X123.081 Y191.623 E22.24118
G1 X122.413 Y191.221 E22.31897
G1 X121.841 Y190.795 E22.39013
G1 X115.478 Y185.571 E23.2116
G1 X114.902 Y185.046 E23.28936
G1 X114.427 Y184.519 E23.36015
G1 X109.204 Y178.157 E24.18148
G1 X108.741 Y177.53 E24.25925
G1 X108.375 Y176.918 E24.3304
G1 X104.493 Y169.655 E25.15213
G1 X104.162 Y168.949 E25.22993
G1 X103.923 Y168.278 E25.30101
G1 X101.534 Y160.401 E26.12233
G1 X101.346 Y159.644 E26.20016
G1 X101.244 Y158.94 E26.27114
G1 X100.437 Y150.747 E27.09259
G1 X100.4 Y149.968 E27.17041
G1 X100.437 Y149.257 E27.24145
G1 X101.244 Y141.059 E28.0634
G1 X101.36 Y140.289 E28.1411
G1 X101.534 Y139.598 E28.2122
G1 X103.923 Y131.722 E29.03343
G1 X104.187 Y130.989 E29.11117
G1 X104.494 Y130.345 E29.18235
G1 X108.377 Y123.081 E30.00422
G1 X108.779 Y122.413 E30.08201
G1 X109.205 Y121.842 E30.15309
G1 X114.427 Y115.481 E30.97428
G1 X114.952 Y114.904 E31.05212
G0 F3600 X115.543 Y115.445
G1 F1800 X115.986 Y115.047 E31.11154
G1 X122.349 Y109.823 E31.933
G1 X122.943 Y109.387 E32.00653
G1 X123.458 Y109.082 E32.06625
G1 X130.722 Y105.199 E32.88811
G1 X131.39 Y104.887 E32.96168
G1 X131.954 Y104.689 E33.02132
G1 X139.831 Y102.3 E33.84264
G1 X140.548 Y102.124 E33.91631
G1 X141.139 Y102.04 E33.97587
G1 X149.334 Y101.233 E34.79753
G1 X150.07 Y101.2 E34.87104
G1 X150.666 Y101.233 E34.9306
G1 X158.861 Y102.04 E35.75225
G1 X159.59 Y102.152 E35.82585
G1 X160.169 Y102.3 E35.88548
G1 X168.046 Y104.689 E36.7068
G1 X168.739 Y104.941 E36.78038
G1 X169.278 Y105.199 E36.84
G1 X176.542 Y109.082 E37.66187
G1 X177.172 Y109.464 E37.73538
G1 X177.651 Y109.823 E37.79511
G1 X184.012 Y115.045 E38.6163
G1 X184.555 Y115.543 E38.68981
G1 X184.953 Y115.986 E38.74923
G1 X190.177 Y122.349 E39.5707
G1 X190.613 Y122.943 E39.64422
G1 X190.918 Y123.458 E39.70394
G1 X194.801 Y130.722 E40.52581
G1 X195.113 Y131.39 E40.59937
G1 X195.311 Y131.954 E40.65902
G1 X197.7 Y139.83 E41.48024
G1 X197.876 Y140.546 E41.55381
G1 X197.96 Y141.138 E41.61347
G1 X198.767 Y149.332 E42.43503
G1 X198.8 Y150.068 E42.50854
G1 X198.767 Y150.664 E42.5681
G1 X197.96 Y158.861 E43.38996
G1 X197.848 Y159.59 E43.46355
G1 X197.7 Y160.169 E43.52318
G1 X195.311 Y168.046 E44.3445
G1 X195.059 Y168.739 E44.41808
G1 X194.801 Y169.277 E44.47762
G1 X190.919 Y176.54 E45.29934
G1 X190.537 Y177.171 E45.37294
G1 X190.178 Y177.65 E45.43267
G1 X184.955 Y184.012 E46.254
G1 X184.457 Y184.555 E46.32752
G1 X184.014 Y184.953 E46.38694
G1 X177.651 Y190.177 E47.2084
G1 X177.057 Y190.613 E47.28193
G1 X176.542 Y190.918 E47.34165
G1 X169.278 Y194.801 E48.16351
G1 X168.61 Y195.113 E48.23707
G1 X168.046 Y195.311 E48.29672
G1 X160.169 Y197.7 E49.11804
G1 X159.452 Y197.876 E49.19171
G1 X158.861 Y197.96 E49.25127
G1 X150.666 Y198.767 E50.07293
G1 X149.93 Y198.8 E50.14644
G1 X149.334 Y198.767 E50.206
G1 X141.139 Y197.96 E51.02765
G1 X140.41 Y197.848 E51.10125
G1 X139.831 Y197.7 E51.16088
G1 X131.954 Y195.311 E51.9822
G1 X131.261 Y195.059 E52.05578
G1 X130.722 Y194.801 E52.1154
G1 X123.458 Y190.918 E52.93727
G1 X122.828 Y190.536 E53.01078
G1 X122.349 Y190.177 E53.07051
G1 X115.986 Y184.953 E53.89198
G1 X115.442 Y184.455 E53.96557
G1 X115.045 Y184.012 E54.02492
G1 X109.822 Y177.65 E54.84625
G1 X109.386 Y177.055 E54.91985
G1 X109.081 Y176.54 E54.97957
G1 X105.199 Y169.277 E55.8013
G1 X104.887 Y168.609 E55.87486
G1 X104.689 Y168.046 E55.93441
G1 X102.3 Y160.169 E56.75574
G1 X102.124 Y159.452 E56.8294
G1 X102.04 Y158.862 E56.88887
G1 X101.233 Y150.669 E57.71032
G1 X101.2 Y149.932 E57.78394
G1 X101.233 Y149.336 E57.8435
G1 X102.04 Y141.138 E58.66545
G1 X102.152 Y140.409 E58.73904
G1 X102.3 Y139.83 E58.79867
G1 X104.689 Y131.954 E59.6199
G1 X104.941 Y131.261 E59.69348
G1 X105.199 Y130.722 E59.7531
G1 X109.082 Y123.458 E60.57497
G1 X109.464 Y122.828 E60.64848
G1 X109.823 Y122.349 E60.70821
G1 X115.045 Y115.988 E61.5294
G1 X115.543 Y115.445 E61.60291
G0 F3600 X116.133 Y115.987
G1 F1800 X116.494 Y115.666 E61.65111
G1 X122.857 Y110.442 E62.47258
G1 X123.416 Y110.034 E62.54163
G1 X123.835 Y109.788 E62.59011
G1 X131.099 Y105.905 E63.41198
G1 X131.728 Y105.614 E63.48113
G1 X132.187 Y105.454 E63.52963
G1 X140.064 Y103.065 E64.35095
G1 X140.737 Y102.903 E64.42002
G1 X141.217 Y102.836 E64.46838
G1 X149.412 Y102.029 E65.29004
G1 X150.104 Y102.001 E65.35914
G1 X150.588 Y102.029 E65.40752
G1 X158.783 Y102.836 E66.22917
G1 X159.467 Y102.943 E66.29825
G1 X159.936 Y103.065 E66.34661
G1 X167.813 Y105.454 E67.16793
G1 X168.463 Y105.693 E67.23703
G1 X168.901 Y105.905 E67.28559
G1 X176.165 Y109.788 E68.10745
G1 X176.755 Y110.149 E68.17647
G1 X177.143 Y110.442 E68.22498
G1 X183.504 Y115.664 E69.04616
G1 X184.013 Y116.133 E69.11523
G1 X184.334 Y116.494 E69.16343
G1 X189.558 Y122.857 E69.98489
G1 X189.966 Y123.416 E70.05395
G1 X190.212 Y123.835 E70.10243
G1 X194.095 Y131.099 E70.92429
G1 X194.386 Y131.728 E70.99344
G1 X194.546 Y132.186 E71.04185
G1 X196.935 Y140.062 E71.86308
G1 X197.097 Y140.736 E71.93225
G1 X197.164 Y141.216 E71.98061
G1 X197.971 Y149.41 E72.80216
G1 X197.999 Y150.102 E72.87127
G1 X197.971 Y150.586 E72.91964
G1 X197.164 Y158.783 E73.74149
G1 X197.057 Y159.467 E73.81057
G1 X196.935 Y159.936 E73.85893
G1 X194.546 Y167.813 E74.68025
G1 X194.307 Y168.463 E74.74935
G1 X194.096 Y168.9 E74.79778
G1 X190.214 Y176.163 E75.6195
G1 X189.852 Y176.754 E75.68866
G1 X189.559 Y177.142 E75.73717
G1 X184.336 Y183.504 E76.55849
G1 X183.867 Y184.013 E76.62756
G1 X183.506 Y184.334 E76.67576
G1 X177.143 Y189.558 E77.49722
G1 X176.584 Y189.966 E77.56628
G1 X176.165 Y190.212 E77.61476
G1 X168.901 Y194.095 E78.43662
G1 X168.272 Y194.386 E78.50577
G1 X167.813 Y194.546 E78.55428
G1 X159.936 Y196.935 E79.3756
G1 X159.263 Y197.097 E79.44467
G1 X158.783 Y197.164 E79.49303
G1 X150.588 Y197.971 E80.31468
G1 X149.896 Y197.999 E80.38379
G1 X149.412 Y197.971 E80.43216
G1 X141.217 Y197.164 E81.25382
G1 X140.533 Y197.057 E81.3229
G1 X140.064 Y196.935 E81.37125
G1 X132.187 Y194.546 E82.19258
G1 X131.537 Y194.307 E82.26168
G1 X131.099 Y194.095 E82.31023
G1 X123.835 Y190.212 E83.13209
G1 X123.245 Y189.851 E83.20111
G1 X122.857 Y189.558 E83.24962
G1 X116.494 Y184.334 E84.07109
G1 X115.985 Y183.865 E84.14015
G1 X115.664 Y183.504 E84.18835
G1 X110.441 Y177.142 E85.00968
G1 X110.033 Y176.582 E85.07881
G1 X109.786 Y176.163 E85.12734
G1 X105.904 Y168.9 E85.94907
G1 X105.614 Y168.272 E86.01809
G1 X105.454 Y167.813 E86.06659
G1 X103.065 Y159.936 E86.88792
G1 X102.903 Y159.263 E86.95699
G1 X102.836 Y158.783 E87.00535
G1 X102.029 Y150.59 E87.8268
G1 X102.001 Y149.898 E87.89591
G1 X102.029 Y149.414 E87.94428
G1 X102.836 Y141.216 E88.76624
G1 X102.943 Y140.532 E88.83532
G1 X103.065 Y140.062 E88.88377
G1 X105.454 Y132.186 E89.70499
G1 X105.693 Y131.536 E89.7741
G1 X105.905 Y131.099 E89.82256
G1 X109.788 Y123.835 E90.64442
G1 X110.149 Y123.245 E90.71344
G1 X110.442 Y122.857 E90.76195
G1 X115.664 Y116.496 E91.58314
G1 X116.133 Y115.987 E91.6522
G0 F3600 X116.721 Y116.532
G1 F1800 X117.001 Y116.284 E91.68952
G1 X123.364 Y111.06 E92.51099
G1 X123.887 Y110.683 E92.57532
G1 X124.213 Y110.493 E92.61297
G1 X131.477 Y106.61 E93.43483
G1 X132.063 Y106.342 E93.49912
G1 X132.419 Y106.22 E93.53667
G1 X140.296 Y103.831 E94.358
G1 X140.923 Y103.682 E94.4223
G1 X141.295 Y103.632 E94.45975
G1 X149.49 Y102.825 E95.28141
G1 X150.135 Y102.802 E95.34581
G1 X150.51 Y102.825 E95.3833
G1 X158.705 Y103.632 E96.20495
G1 X159.341 Y103.735 E96.26924
G1 X159.704 Y103.831 E96.3067
G1 X167.581 Y106.22 E97.12803
G1 X168.185 Y106.445 E97.19234
G1 X168.523 Y106.61 E97.22987
G1 X175.787 Y110.493 E98.05173
G1 X176.336 Y110.832 E98.11611
G1 X176.635 Y111.06 E98.15363
G1 X182.996 Y116.282 E98.97482
G1 X183.468 Y116.721 E99.03914
G1 X183.716 Y117.001 E99.07646
G1 X188.94 Y123.364 E99.89792
G1 X189.317 Y123.887 E99.96225
G1 X189.507 Y124.213 E99.9999
G1 X193.39 Y131.477 E100.82177
G1 X193.658 Y132.063 E100.88606
G1 X193.78 Y132.419 E100.92361
G1 X196.169 Y140.295 E101.74484
G1 X196.318 Y140.922 E101.80914
G1 X196.368 Y141.294 E101.8466
G1 X197.175 Y149.488 E102.66815
G1 X197.198 Y150.133 E102.73255
G1 X197.175 Y150.507 E102.76994
G1 X196.368 Y158.704 E103.59179
G1 X196.265 Y159.341 E103.65618
G1 X196.169 Y159.704 E103.69365
G1 X193.78 Y167.581 E104.51497
G1 X193.555 Y168.185 E104.57928
G1 X193.39 Y168.523 E104.61681
G1 X189.508 Y175.786 E105.43854
G1 X189.169 Y176.335 E105.50292
G1 X188.941 Y176.635 E105.54052
G1 X183.718 Y182.997 E106.36184
G1 X183.279 Y183.468 E106.42609
G1 X182.999 Y183.716 E106.46341
G1 X176.636 Y188.94 E107.28488
G1 X176.113 Y189.317 E107.34921
G1 X175.787 Y189.507 E107.38686
G1 X168.523 Y193.39 E108.20872
G1 X167.937 Y193.658 E108.27301
G1 X167.581 Y193.78 E108.31056
G1 X159.704 Y196.169 E109.13189
G1 X159.077 Y196.318 E109.19619
G1 X158.705 Y196.368 E109.23364
G1 X150.51 Y197.175 E110.0553
G1 X149.865 Y197.198 E110.1197
G1 X149.49 Y197.175 E110.15719
G1 X141.295 Y196.368 E110.97884
G1 X140.659 Y196.265 E111.04313
G1 X140.296 Y196.169 E111.0806
G1 X132.419 Y193.78 E111.90192
G1 X131.815 Y193.555 E111.96623
G1 X131.477 Y193.39 E112.00376
G1 X124.213 Y189.507 E112.82562
G1 X123.664 Y189.168 E112.89001
G1 X123.364 Y188.94 E112.9276
G1 X117.001 Y183.716 E113.74907
G1 X116.529 Y183.277 E113.81339
G1 X116.282 Y182.997 E113.85064
G1 X111.059 Y176.635 E114.67197
G1 X110.682 Y176.112 E114.7363
G1 X110.492 Y175.786 E114.77395
G1 X106.61 Y168.523 E115.59567
G1 X106.342 Y167.937 E115.65997
G1 X106.22 Y167.581 E115.69752
G1 X103.831 Y159.704 E116.51884
G1 X103.682 Y159.077 E116.58315
G1 X103.632 Y158.705 E116.6206
G1 X102.825 Y150.512 E117.44206
G1 X102.802 Y149.867 E117.50646
G1 X102.825 Y149.493 E117.54385
G1 X103.632 Y141.295 E118.3658
G1 X103.735 Y140.658 E118.43018
G1 X103.831 Y140.295 E118.46765
G1 X106.22 Y132.419 E119.28888
G1 X106.445 Y131.814 E119.35328
G1 X106.61 Y131.477 E119.39072
G1 X110.493 Y124.213 E120.21259
G1 X110.832 Y123.664 E120.27697
G1 X111.06 Y123.365 E120.31449
G1 X116.282 Y117.004 E121.13567
G1 X116.721 Y116.532 E121.19999
G0 F3600 X117.509 Y116.902
G1 F1800 X123.872 Y111.678 E122.02146
G1 X124.59 Y111.199 E122.10758
G1 X131.854 Y107.316 E122.92944
G1 X132.651 Y106.985 E123.01555
G1 X140.528 Y104.596 E123.83687
G1 X141.374 Y104.428 E123.92294
G1 X149.569 Y103.621 E124.74459
G1 X150.431 Y103.621 E124.8306
G1 X158.626 Y104.428 E125.65226
G1 X159.472 Y104.596 E125.73832
G1 X167.349 Y106.985 E126.55964
G1 X168.146 Y107.316 E126.64575
G1 X175.41 Y111.199 E127.46762
G1 X176.128 Y111.678 E127.55374
G1 X182.489 Y116.9 E128.37492
G1 X183.098 Y117.509 E128.46086
G1 X188.322 Y123.872 E129.28233
G1 X188.801 Y124.59 E129.36845
G1 X192.684 Y131.854 E130.19031
G1 X193.015 Y132.651 E130.27642
G1 X195.404 Y140.527 E131.09765
G1 X195.572 Y141.373 E131.18371
G1 X196.379 Y149.567 E132.00527
G1 X196.379 Y150.429 E132.09128
G1 X195.572 Y158.626 E132.91313
G1 X195.404 Y159.472 E132.99919
G1 X193.015 Y167.349 E133.82052
G1 X192.684 Y168.146 E133.90663
G1 X188.802 Y175.409 E134.72836
G1 X188.323 Y176.127 E134.81448
G1 X183.1 Y182.489 E135.6358
G1 X182.491 Y183.098 E135.72174
G1 X176.128 Y188.322 E136.5432
G1 X175.41 Y188.801 E136.62933
G1 X168.146 Y192.684 E137.45119
G1 X167.349 Y193.015 E137.5373
G1 X159.472 Y195.404 E138.35862
G1 X158.626 Y195.572 E138.44469
G1 X150.431 Y196.379 E139.26634
G1 X149.569 Y196.379 E139.35235
G1 X141.374 Y195.572 E140.17401
G1 X140.528 Y195.404 E140.26007
G1 X132.651 Y193.015 E141.08139
G1 X131.854 Y192.684 E141.1675
G1 X124.59 Y188.801 E141.98937
G1 X123.872 Y188.322 E142.07549
G1 X117.509 Y183.098 E142.89695
G1 X116.9 Y182.489 E142.98289
G1 X111.677 Y176.127 E143.80422
G1 X111.198 Y175.409 E143.89034
G1 X107.316 Y168.146 E144.71206
G1 X106.985 Y167.349 E144.79817
G1 X104.596 Y159.472 E145.6195
G1 X104.428 Y158.626 E145.70556
G1 X103.621 Y150.433 E146.52702
G1 X103.621 Y149.571 E146.61303
G1 X104.428 Y141.373 E147.43498
G1 X104.596 Y140.527 E147.52104
G1 X106.985 Y132.651 E148.34227
G1 X107.316 Y131.854 E148.42838
G1 X111.199 Y124.59 E149.25025
G1 X111.678 Y123.872 E149.33637
G1 X116.9 Y117.511 E150.15755
G1 X117.509 Y116.902 E150.24349
G0 F3600 X118.017 Y117.521
G1 F1800 X124.38 Y112.297 E151.06495
G1 X124.967 Y111.904 E151.13544
G1 X132.231 Y108.021 E151.9573
G1 X132.883 Y107.751 E152.02772
G1 X140.76 Y105.362 E152.84904
G1 X141.452 Y105.224 E152.91945
G1 X149.647 Y104.417 E153.7411
G1 X150.353 Y104.417 E153.81155
G1 X158.548 Y105.224 E154.6332
G1 X159.24 Y105.362 E154.70361
G1 X167.117 Y107.751 E155.52493
G1 X167.769 Y108.021 E155.59535
G1 X175.033 Y111.904 E156.41721
G1 X175.62 Y112.297 E156.4877
G1 X181.981 Y117.519 E157.30888
G1 X182.479 Y118.017 E157.37916
G1 X187.703 Y124.38 E158.20062
G1 X188.096 Y124.967 E158.27111
G1 X191.979 Y132.231 E159.09297
G1 X192.249 Y132.883 E159.16338
G1 X194.638 Y140.759 E159.98461
G1 X194.776 Y141.451 E160.05502
G1 X195.583 Y149.645 E160.87658
G1 X195.583 Y150.351 E160.94702
G1 X194.776 Y158.548 E161.76888
G1 X194.638 Y159.24 E161.83928
G1 X192.249 Y167.117 E162.66061
G1 X191.979 Y167.769 E162.73102
G1 X188.097 Y175.032 E163.55275
G1 X187.704 Y175.619 E163.62323
G1 X182.481 Y181.981 E164.44456
G1 X181.983 Y182.479 E164.51483
G1 X175.62 Y187.703 E165.3363
G1 X175.033 Y188.096 E165.40678
G1 X167.769 Y191.979 E166.22865
G1 X167.117 Y192.249 E166.29906
G1 X159.24 Y194.638 E167.12038
G1 X158.548 Y194.776 E167.19079
G1 X150.353 Y195.583 E168.01245
G1 X149.647 Y195.583 E168.08289
G1 X141.452 Y194.776 E168.90455
G1 X140.76 Y194.638 E168.97496
G1 X132.883 Y192.249 E169.79628
G1 X132.231 Y191.979 E169.86669
G1 X124.967 Y188.096 E170.68856
G1 X124.38 Y187.703 E170.75904
G1 X118.017 Y182.479 E171.58051
G1 X117.519 Y181.981 E171.65078
