;FLAVOR:Marlin
;TIME:146
;Filament used: 0.137631m
;Layer height: 0.2
;MINX:92.2
;MINY:90.95
;MINZ:0.3
;MAXX:127.8
;MAXY:129.087
;MAXZ:0.9
;Generated with Cura_SteamEngine 5.3.1
M140 S90
M105
M190 S90
M105
M104 S240
M105
M109 S240
M105
M82 ;absolute extrusion mode
G28 ;Home
G1 Z15.0 F2000 ;Move the platform
G92 E0
G92 E0
G1 F1500 E-6.5
;LAYER_COUNT:5
;LAYER:0
M107
M204 S1000
G0 F7500 X97.531 Y96.06 Z0.3
;TYPE:SKIRT
G1 F1500 E0
G1 X98.833 Y94.897 E0.0871
G1 X100.219 Y93.883 E0.17278
G1 X101.551 Y93.09 E0.25011
G1 X103.462 Y92.197 E0.35535
G1 X104.74 Y91.747 E0.42295
G1 X106.4 Y91.324 E0.50841
G1 X108.73 Y90.998 E0.62579
G1 X110.39 Y90.95 E0.70864
G1 X111.369 Y90.998 E0.75754
G1 X113.161 Y91.244 E0.84778
G1 X115.467 Y91.815 E0.9663
G1 X116.895 Y92.339 E1.04219
G1 X118.169 Y92.939 E1.11245
G1 X120.136 Y94.123 E1.22699
G1 X121.313 Y95.01 E1.30052
G1 X122.643 Y96.225 E1.39039
G1 X123.587 Y97.26 E1.46028
G1 X125.023 Y99.195 E1.5805
G1 X125.536 Y100.055 E1.63046
G1 X126.538 Y102.17 E1.74722
G1 X127.003 Y103.488 E1.81694
G1 X127.426 Y105.15 E1.9025
G1 X127.752 Y107.478 E2.01978
G1 X127.8 Y109.139 E2.10268
G1 X127.752 Y110.119 E2.15164
G1 X127.506 Y111.911 E2.24188
G1 X126.935 Y114.217 E2.3604
G1 X126.412 Y115.643 E2.43618
G1 X125.773 Y116.995 E2.51078
G1 X124.653 Y118.852 E2.61897
G1 X123.94 Y119.814 E2.67871
G1 X122.44 Y121.469 E2.79015
G1 X121.199 Y122.578 E2.87318
G1 X119.814 Y123.595 E2.95891
G1 X118.416 Y124.427 E3.04007
G1 X118.258 Y124.505 E3.04886
G1 X117.619 Y125.478 E3.10694
G1 X116.237 Y126.86 E3.20445
G1 X114.547 Y127.97 E3.30532
G1 X112.39 Y128.846 E3.42147
G1 X109.951 Y129.087 E3.54374
G1 X107.568 Y128.846 E3.66324
G1 X105.451 Y127.968 E3.77758
G1 X103.769 Y126.866 E3.8779
G1 X102.376 Y125.473 E3.97618
G1 X101.747 Y124.512 E4.03349
G1 X100.036 Y123.492 E4.13287
G1 X98.624 Y122.439 E4.22074
G1 X97.432 Y121.352 E4.30123
G1 X96.342 Y120.156 E4.38196
G1 X95 Y118.336 E4.49477
G1 X94.449 Y117.412 E4.54845
G1 X93.461 Y115.326 E4.6636
G1 X92.997 Y114.01 E4.73322
G1 X92.574 Y112.35 E4.81868
G1 X92.248 Y110.02 E4.93606
G1 X92.2 Y108.361 E5.01886
G1 X92.248 Y107.381 E5.06781
G1 X92.494 Y105.589 E5.15805
G1 X93.065 Y103.283 E5.27657
G1 X93.588 Y101.857 E5.35235
G1 X94.227 Y100.505 E5.42696
G1 X95.347 Y98.648 E5.53515
G1 X96.06 Y97.686 E5.59489
G1 X97.531 Y96.06 E5.70428
G0 F7500 X97.827 Y96.329
G1 F1500 X99.069 Y95.22 E5.78735
G1 X100.424 Y94.227 E5.87116
G1 X101.756 Y93.434 E5.9485
G1 X103.631 Y92.559 E6.05173
G1 X104.839 Y92.135 E6.1156
G1 X106.499 Y91.712 E6.20107
G1 X108.742 Y91.398 E6.31406
G1 X110.37 Y91.35 E6.39532
G1 X111.349 Y91.398 E6.44422
G1 X113.106 Y91.64 E6.5327
G1 X115.329 Y92.191 E6.64696
G1 X116.757 Y92.715 E6.72285
G1 X117.963 Y93.282 E6.78934
G1 X119.896 Y94.443 E6.90183
G1 X121.043 Y95.306 E6.97345
G1 X122.347 Y96.495 E7.06149
G1 X123.291 Y97.53 E7.13138
G1 X124.679 Y99.4 E7.24756
G1 X125.192 Y100.26 E7.29752
G1 X126.161 Y102.303 E7.41033
G1 X126.615 Y103.587 E7.47828
G1 X127.038 Y105.249 E7.56384
G1 X127.352 Y107.49 E7.67673
G1 X127.4 Y109.119 E7.75804
G1 X127.352 Y110.099 E7.80699
G1 X127.11 Y111.856 E7.89547
G1 X126.559 Y114.079 E8.00974
G1 X126.036 Y115.505 E8.08551
G1 X125.43 Y116.788 E8.1563
G1 X124.31 Y118.645 E8.2645
G1 X123.619 Y119.575 E8.3223
G1 X122.173 Y121.171 E8.42974
G1 X120.932 Y122.28 E8.51278
G1 X119.609 Y123.251 E8.59465
G1 X118.211 Y124.083 E8.67582
G1 X117.984 Y124.194 E8.68842
G1 X117.308 Y125.223 E8.74985
G1 X115.982 Y126.549 E8.8434
G1 X114.361 Y127.614 E8.94017
G1 X112.292 Y128.454 E9.05157
G1 X109.952 Y128.685 E9.16888
G1 X107.665 Y128.454 E9.28356
G1 X105.642 Y127.615 E9.39283
G1 X104.023 Y126.554 E9.4894
G1 X102.688 Y125.219 E9.58359
G1 X102.031 Y124.215 E9.64345
G1 X100.241 Y123.148 E9.74742
G1 X98.894 Y122.143 E9.83126
G1 X97.702 Y121.056 E9.91175
G1 X96.638 Y119.887 E9.99061
G1 X95.344 Y118.131 E10.09943
G1 X94.793 Y117.207 E10.1531
G1 X93.838 Y115.193 E10.26431
G1 X93.385 Y113.911 E10.33214
G1 X92.962 Y112.251 E10.41761
G1 X92.648 Y110.008 E10.5306
G1 X92.6 Y108.381 E10.61181
G1 X92.648 Y107.401 E10.66076
G1 X92.89 Y105.644 E10.74924
G1 X93.441 Y103.421 E10.86351
G1 X93.964 Y101.995 E10.93928
G1 X94.57 Y100.712 E11.01007
G1 X95.69 Y98.855 E11.11827
G1 X96.381 Y97.925 E11.17607
G1 X97.827 Y96.329 E11.28351
G0 F7500 X98.123 Y96.598
G1 F1500 X99.306 Y95.542 E11.36263
G1 X100.629 Y94.571 E11.4445
G1 X101.961 Y93.778 E11.52184
G1 X103.764 Y92.936 E11.62112
G1 X104.938 Y92.523 E11.68321
G1 X106.598 Y92.1 E11.76867
G1 X108.754 Y91.798 E11.87729
G1 X110.35 Y91.75 E11.95695
G1 X111.329 Y91.798 E12.00585
G1 X113.051 Y92.036 E12.09258
G1 X115.191 Y92.567 E12.20258
G1 X116.619 Y93.091 E12.27847
G1 X117.757 Y93.625 E12.34118
G1 X119.656 Y94.763 E12.45163
G1 X120.773 Y95.602 E12.52133
G1 X122.077 Y96.791 E12.60937
G1 X122.995 Y97.799 E12.67739
G1 X124.335 Y99.605 E12.78958
G1 X124.848 Y100.465 E12.83954
G1 X125.799 Y102.474 E12.95043
G1 X126.227 Y103.686 E13.01456
G1 X126.65 Y105.348 E13.10012
G1 X126.952 Y107.502 E13.20864
G1 X127 Y109.099 E13.28835
G1 X126.952 Y110.079 E13.3373
G1 X126.714 Y111.801 E13.42403
G1 X126.183 Y113.941 E13.53403
G1 X125.66 Y115.367 E13.60981
G1 X125.087 Y116.581 E13.67678
G1 X123.967 Y118.438 E13.78497
G1 X123.323 Y119.306 E13.83889
G1 X121.877 Y120.902 E13.94634
G1 X120.695 Y121.958 E14.02542
G1 X119.404 Y122.907 E14.10535
G1 X118.006 Y123.739 E14.18652
G1 X117.709 Y123.884 E14.20301
G1 X116.997 Y124.968 E14.26771
G1 X115.727 Y126.238 E14.35731
G1 X114.177 Y127.256 E14.44983
G1 X112.193 Y128.062 E14.55667
G1 X109.953 Y128.283 E14.66897
G1 X107.762 Y128.062 E14.77883
G1 X105.833 Y127.262 E14.88302
G1 X104.277 Y126.242 E14.97584
G1 X103 Y124.965 E15.06594
G1 X102.305 Y123.903 E15.12926
G1 X102.196 Y123.851 E15.13528
G1 X100.446 Y122.805 E15.237
G1 X99.164 Y121.847 E15.31684
G1 X97.972 Y120.76 E15.39733
G1 X96.96 Y119.649 E15.4723
G1 X95.688 Y117.926 E15.57915
G1 X95.137 Y117.002 E15.63282
G1 X94.2 Y115.022 E15.74211
G1 X93.773 Y113.812 E15.80612
G1 X93.35 Y112.152 E15.89159
G1 X93.048 Y109.996 E16.0002
G1 X93 Y108.401 E16.07981
G1 X93.048 Y107.421 E16.12876
G1 X93.286 Y105.699 E16.21549
G1 X93.817 Y103.559 E16.32549
G1 X94.34 Y102.133 E16.40127
G1 X94.913 Y100.919 E16.46825
G1 X96.033 Y99.062 E16.57644
G1 X96.677 Y98.194 E16.63036
G1 X98.123 Y96.598 E16.7378
G0 F7500 X98.419 Y96.867
G1 F1500 X99.543 Y95.864 E16.81296
G1 X100.834 Y94.915 E16.8929
G1 X102.166 Y94.122 E16.97024
G1 X103.897 Y93.313 E17.06556
G1 X105.037 Y92.911 E17.12587
G1 X106.697 Y92.488 E17.21134
G1 X108.766 Y92.198 E17.31557
G1 X110.33 Y92.15 E17.39363
G1 X111.309 Y92.198 E17.44253
G1 X112.955 Y92.424 E17.52542
G1 X115.053 Y92.943 E17.63325
G1 X116.481 Y93.467 E17.70914
G1 X117.552 Y93.968 E17.76813
G1 X119.416 Y95.083 E17.87649
G1 X120.503 Y95.898 E17.94427
G1 X121.807 Y97.087 E18.03231
G1 X122.699 Y98.068 E18.09846
G1 X123.991 Y99.81 E18.20666
G1 X124.504 Y100.67 E18.25662
G1 X125.422 Y102.607 E18.36356
G1 X125.839 Y103.785 E18.42591
G1 X126.262 Y105.447 E18.51147
G1 X126.552 Y107.514 E18.6156
G1 X126.6 Y109.079 E18.69372
G1 X126.552 Y110.059 E18.74267
G1 X126.326 Y111.705 E18.82556
G1 X125.807 Y113.803 E18.93338
G1 X125.284 Y115.229 E19.00916
G1 X124.744 Y116.374 E19.07232
G1 X123.624 Y118.231 E19.18051
G1 X123.002 Y119.067 E19.2325
G1 X121.581 Y120.633 E19.338
G1 X120.458 Y121.636 E19.41312
G1 X119.199 Y122.563 E19.49112
G1 X117.801 Y123.395 E19.57228
G1 X117.436 Y123.572 E19.59252
G1 X116.686 Y124.713 E19.66064
G1 X115.47 Y125.929 E19.74643
G1 X113.995 Y126.897 E19.83445
G1 X112.094 Y127.67 E19.93684
G1 X109.954 Y127.881 E20.04412
G1 X107.862 Y127.67 E20.14902
G1 X106.016 Y126.905 E20.24871
G1 X104.534 Y125.933 E20.33713
G1 X103.312 Y124.711 E20.42335
G1 X102.579 Y123.592 E20.49009
G1 X102.37 Y123.491 E20.50167
G1 X100.685 Y122.484 E20.5996
G1 X99.434 Y121.551 E20.67746
G1 X98.242 Y120.464 E20.75795
G1 X97.256 Y119.38 E20.83105
G1 X96.032 Y117.721 E20.93391
G1 X95.481 Y116.797 E20.98758
G1 X94.577 Y114.889 E21.09292
G1 X94.161 Y113.713 E21.15515
G1 X93.738 Y112.053 E21.24061
G1 X93.448 Y109.984 E21.34485
G1 X93.4 Y108.421 E21.42286
G1 X93.448 Y107.441 E21.47181
G1 X93.674 Y105.795 E21.5547
G1 X94.193 Y103.697 E21.66253
G1 X94.716 Y102.271 E21.7383
G1 X95.256 Y101.126 E21.80146
G1 X96.376 Y99.269 E21.90965
G1 X96.998 Y98.433 E21.96164
G1 X98.419 Y96.867 E22.06714
G0 F7500 X98.715 Y97.136
G1 F1500 X99.78 Y96.186 E22.13834
G1 X101.039 Y95.259 E22.21634
G1 X102.371 Y94.466 E22.29368
G1 X104.03 Y93.69 E22.38505
G1 X105.136 Y93.299 E22.44358
G1 X106.796 Y92.876 E22.52904
G1 X108.779 Y92.598 E22.62894
G1 X110.31 Y92.55 E22.70536
G1 X111.289 Y92.598 E22.75426
G1 X112.9 Y92.82 E22.8354
G1 X114.915 Y93.319 E22.93896
G1 X116.343 Y93.843 E23.01485
G1 X117.382 Y94.33 E23.0721
G1 X119.176 Y95.403 E23.17639
G1 X120.233 Y96.194 E23.24225
G1 X121.537 Y97.383 E23.33029
G1 X122.378 Y98.307 E23.39263
G1 X123.647 Y100.015 E23.49879
G1 X124.16 Y100.875 E23.54875
G1 X125.045 Y102.741 E23.65178
G1 X125.451 Y103.884 E23.7123
G1 X125.874 Y105.546 E23.79786
G1 X126.152 Y107.527 E23.89766
G1 X126.2 Y109.059 E23.97413
G1 X126.152 Y110.039 E24.02308
G1 X125.93 Y111.65 E24.10421
G1 X125.431 Y113.665 E24.20778
G1 X124.908 Y115.091 E24.28355
G1 X124.401 Y116.168 E24.34294
G1 X123.303 Y117.992 E24.44916
G1 X122.681 Y118.828 E24.50114
G1 X121.285 Y120.364 E24.60469
G1 X120.22 Y121.314 E24.67589
G1 X118.994 Y122.219 E24.75192
G1 X117.596 Y123.051 E24.83308
G1 X117.163 Y123.259 E24.85705
G1 X116.375 Y124.458 E24.92863
G1 X115.213 Y125.62 E25.01061
G1 X113.809 Y126.541 E25.09439
G1 X111.998 Y127.278 E25.19193
G1 X109.955 Y127.479 E25.29435
G1 X107.962 Y127.278 E25.39429
G1 X106.199 Y126.548 E25.48948
G1 X104.791 Y125.624 E25.57351
G1 X103.624 Y124.457 E25.65584
G1 X102.853 Y123.279 E25.72608
G1 X102.543 Y123.13 E25.74324
G1 X100.89 Y122.141 E25.83934
G1 X99.704 Y121.255 E25.9132
G1 X98.512 Y120.168 E25.99369
G1 X97.552 Y119.111 E26.06492
G1 X96.376 Y117.516 E26.16379
G1 X95.825 Y116.592 E26.21746
G1 X94.954 Y114.755 E26.31889
G1 X94.549 Y113.614 E26.37929
G1 X94.126 Y111.954 E26.46476
G1 X93.848 Y109.971 E26.56466
G1 X93.8 Y108.441 E26.64103
G1 X93.848 Y107.461 E26.68998
G1 X94.07 Y105.85 E26.77111
G1 X94.569 Y103.835 E26.87468
G1 X95.092 Y102.409 E26.95045
G1 X95.599 Y101.332 E27.00984
G1 X96.697 Y99.508 E27.11606
G1 X97.319 Y98.672 E27.16804
G1 X98.715 Y97.136 E27.2716
G0 F7500 X98.982 Y97.434
G1 F1500 X100.018 Y96.508 E27.34092
G1 X101.244 Y95.603 E27.41694
G1 X102.576 Y94.81 E27.49428
G1 X104.164 Y94.067 E27.58175
G1 X105.235 Y93.687 E27.63845
G1 X106.895 Y93.264 E27.72391
G1 X108.792 Y92.998 E27.81948
G1 X110.29 Y92.95 E27.89425
G1 X111.269 Y92.998 E27.94315
G1 X112.845 Y93.216 E28.02253
G1 X114.777 Y93.695 E28.12184
G1 X116.205 Y94.219 E28.19772
G1 X117.212 Y94.692 E28.25323
G1 X118.937 Y95.724 E28.35352
G1 X119.963 Y96.49 E28.4174
G1 X121.267 Y97.679 E28.50544
G1 X122.082 Y98.576 E28.5659
G1 X123.303 Y100.22 E28.66807
G1 X123.816 Y101.08 E28.71803
G1 X124.668 Y102.875 E28.81716
G1 X125.063 Y103.983 E28.87584
G1 X125.486 Y105.645 E28.9614
G1 X125.752 Y107.54 E29.05687
G1 X125.8 Y109.039 E29.13169
G1 X125.752 Y110.019 E29.18065
G1 X125.534 Y111.595 E29.26002
G1 X125.055 Y113.527 E29.35933
G1 X124.532 Y114.953 E29.43511
G1 X124.058 Y115.962 E29.49072
G1 X122.982 Y117.753 E29.59496
G1 X122.36 Y118.589 E29.64695
G1 X121.018 Y120.066 E29.74651
G1 X119.982 Y120.992 E29.81583
G1 X118.789 Y121.875 E29.88988
G1 X117.391 Y122.707 E29.97104
G1 X116.89 Y122.946 E29.99874
G1 X116.064 Y124.203 E30.07378
G1 X114.958 Y125.309 E30.15181
G1 X113.625 Y126.184 E30.23136
G1 X111.899 Y126.886 E30.32432
G1 X109.956 Y127.077 E30.42173
G1 X108.062 Y126.886 E30.5167
G1 X106.385 Y126.192 E30.60725
G1 X105.046 Y125.313 E30.68716
G1 X103.936 Y124.203 E30.76547
G1 X103.127 Y122.966 E30.83921
G1 X102.716 Y122.769 E30.86195
G1 X101.096 Y121.798 E30.95618
G1 X99.974 Y120.959 E31.02608
G1 X98.782 Y119.872 E31.10656
G1 X97.848 Y118.842 E31.17593
G1 X96.72 Y117.311 E31.2708
G1 X96.169 Y116.387 E31.32448
G1 X95.331 Y114.621 E31.422
G1 X94.937 Y113.515 E31.48057
G1 X94.514 Y111.855 E31.56604
G1 X94.248 Y109.958 E31.66161
G1 X94.2 Y108.461 E31.73633
G1 X94.248 Y107.481 E31.78528
G1 X94.466 Y105.905 E31.86466
G1 X94.945 Y103.973 E31.96396
G1 X95.468 Y102.547 E32.03974
G1 X95.942 Y101.538 E32.09536
G1 X97.018 Y99.747 E32.1996
G1 X97.64 Y98.911 E32.25158
G1 X98.982 Y97.434 E32.35114
G0 F7500 X99.278 Y97.703
G1 F1500 X100.256 Y96.83 E32.41655
G1 X101.449 Y95.947 E32.4906
G1 X102.781 Y95.154 E32.56794
G1 X104.298 Y94.444 E32.6515
G1 X105.334 Y94.075 E32.70636
G1 X106.994 Y93.652 E32.79183
G1 X108.805 Y93.398 E32.88306
G1 X110.27 Y93.35 E32.95619
G1 X111.249 Y93.398 E33.00509
G1 X112.749 Y93.604 E33.08063
G1 X114.639 Y94.071 E33.17776
G1 X116.067 Y94.595 E33.25365
G1 X117.041 Y95.054 E33.30737
G1 X118.731 Y96.067 E33.40567
G1 X119.693 Y96.786 E33.46559
G1 X120.997 Y97.975 E33.55363
G1 X121.786 Y98.845 E33.61222
G1 X122.959 Y100.425 E33.7104
G1 X123.472 Y101.285 E33.76036
G1 X124.306 Y103.046 E33.85757
G1 X124.675 Y104.082 E33.91243
G1 X125.098 Y105.744 E33.998
G1 X125.352 Y107.553 E34.08913
G1 X125.4 Y109.019 E34.16231
G1 X125.352 Y109.999 E34.21126
G1 X125.146 Y111.499 E34.2868
G1 X124.679 Y113.389 E34.38393
G1 X124.156 Y114.815 E34.4597
G1 X123.696 Y115.791 E34.51353
G1 X122.661 Y117.514 E34.61381
G1 X122.039 Y118.35 E34.6658
G1 X120.722 Y119.797 E34.76341
G1 X119.744 Y120.67 E34.82882
G1 X118.551 Y121.553 E34.90287
G1 X117.187 Y122.363 E34.98201
G1 X116.584 Y122.649 E35.01531
G1 X116.514 Y122.79 E35.02316
G1 X115.753 Y123.948 E35.09229
G1 X114.701 Y125 E35.16652
G1 X113.439 Y125.828 E35.24182
G1 X111.803 Y126.494 E35.32994
G1 X109.957 Y126.675 E35.42248
G1 X108.162 Y126.494 E35.51249
G1 X106.571 Y125.836 E35.59839
G1 X105.301 Y125.002 E35.67419
G1 X104.247 Y123.948 E35.74855
G1 X103.487 Y122.792 E35.81757
G1 X103.422 Y122.663 E35.82478
G1 X102.889 Y122.408 E35.85426
G1 X101.335 Y121.477 E35.94464
G1 X100.244 Y120.663 E36.01255
G1 X99.052 Y119.576 E36.09303
G1 X98.145 Y118.574 E36.16046
G1 X97.064 Y117.106 E36.25141
G1 X96.513 Y116.182 E36.30508
G1 X95.693 Y114.45 E36.40069
G1 X95.325 Y113.416 E36.45545
G1 X94.902 Y111.756 E36.54091
G1 X94.648 Y109.945 E36.63215
G1 X94.6 Y108.481 E36.70522
G1 X94.648 Y107.501 E36.75417
G1 X94.854 Y106.001 E36.82971
G1 X95.321 Y104.111 E36.92684
G1 X95.844 Y102.685 E37.00262
G1 X96.304 Y101.709 E37.05645
G1 X97.339 Y99.986 E37.15673
G1 X97.961 Y99.15 E37.20871
G1 X99.278 Y97.703 E37.30633
G0 F7500 X99.545 Y98.001
G1 F1500 X100.494 Y97.152 E37.36985
G1 X101.687 Y96.269 E37.4439
G1 X102.985 Y95.498 E37.51922
G1 X104.433 Y94.821 E37.59897
G1 X105.433 Y94.463 E37.65196
G1 X107.093 Y94.04 E37.73742
G1 X108.818 Y93.798 E37.82433
G1 X110.25 Y93.75 E37.89581
G1 X111.229 Y93.798 E37.94471
G1 X112.694 Y94 E38.01849
G1 X114.501 Y94.447 E38.11136
G1 X115.929 Y94.971 E38.18725
G1 X116.87 Y95.416 E38.23918
G1 X118.525 Y96.41 E38.3355
G1 X119.423 Y97.082 E38.39145
G1 X120.727 Y98.271 E38.4795
G1 X121.489 Y99.113 E38.53615
G1 X122.615 Y100.63 E38.6304
G1 X123.128 Y101.49 E38.68036
G1 X123.929 Y103.181 E38.77371
G1 X124.287 Y104.181 E38.82671
G1 X124.71 Y105.843 E38.91227
G1 X124.952 Y107.566 E38.99907
G1 X125 Y108.999 E39.0706
G1 X124.952 Y109.979 E39.11955
G1 X124.75 Y111.444 E39.19334
G1 X124.303 Y113.251 E39.2862
G1 X123.78 Y114.677 E39.36198
G1 X123.334 Y115.62 E39.41402
G1 X122.34 Y117.275 E39.51034
G1 X121.718 Y118.111 E39.56233
G1 X120.455 Y119.499 E39.65595
G1 X119.506 Y120.348 E39.71948
G1 X118.313 Y121.231 E39.79353
G1 X117.015 Y122.002 E39.86885
G1 X116.283 Y122.35 E39.90928
G1 X116.18 Y122.57 E39.9214
G1 X115.442 Y123.693 E39.98845
G1 X114.446 Y124.689 E40.05872
G1 X113.255 Y125.471 E40.1298
G1 X111.704 Y126.102 E40.21334
G1 X109.958 Y126.273 E40.30086
G1 X108.262 Y126.102 E40.38591
G1 X106.754 Y125.478 E40.46733
G1 X105.558 Y124.693 E40.5387
G1 X104.558 Y123.693 E40.60926
G1 X103.821 Y122.572 E40.67619
G1 X103.724 Y122.364 E40.68764
G1 X103.095 Y122.065 E40.72238
G1 X101.541 Y121.134 E40.81276
G1 X100.514 Y120.367 E40.87671
G1 X99.322 Y119.28 E40.9572
G1 X98.467 Y118.336 E41.02074
